release/datafiles/colormanagement/luts/dcp_in.spi1d
Version 1
From 0.0 1.0
Length 4096
Components 1
{
        0.000000
        0.000000
        0.000000
        0.000000
        0.000000
        0.000000
        0.000000
        0.000000
        0.000000
        0.000000
        0.000001
        0.000001
        0.000001
        0.000001
        0.000001
        0.000001
        0.000002
        0.000002
        0.000002
        0.000003
        0.000003
        0.000003
        0.000004
        0.000004
        0.000004
        0.000005
        0.000005
        0.000006
        0.000006
        0.000007
        0.000008
        0.000008
        0.000009
        0.000009
        0.000010
        0.000011
        0.000012
        0.000012
        0.000013
        0.000014
        0.000015
        0.000016
        0.000017
        0.000018
        0.000019
        0.000020
        0.000021
        0.000022
        0.000023
        0.000024
        0.000026
        0.000027
        0.000028
        0.000029
        0.000031
        0.000032
        0.000034
        0.000035
        0.000037
        0.000038
        0.000040
        0.000041
        0.000043
        0.000045
        0.000046
        0.000048
        0.000050
        0.000052
        0.000054
        0.000055
        0.000057
        0.000059
        0.000061
        0.000063
        0.000066
        0.000068
        0.000070
        0.000072
        0.000074
        0.000077
        0.000079
        0.000081
        0.000084
        0.000086
        0.000089
        0.000091
        0.000094
        0.000097
        0.000099
        0.000102
        0.000105
        0.000108
        0.000111
        0.000113
        0.000116
        0.000119
        0.000122
        0.000126
        0.000129
        0.000132
        0.000135
        0.000138
        0.000142
        0.000145
        0.000148
        0.000152
        0.000155
        0.000159
        0.000162
        0.000166
        0.000170
        0.000174
        0.000177
        0.000181
        0.000185
        0.000189
        0.000193
        0.000197
        0.000201
        0.000205
        0.000209
        0.000213
        0.000218
        0.000222
        0.000226
        0.000231
        0.000235
        0.000240
        0.000244
        0.000249
        0.000254
        0.000258
        0.000263
        0.000268
        0.000273
        0.000278
        0.000283
        0.000288
        0.000293
        0.000298
        0.000303
        0.000308
        0.000313
        0.000319
        0.000324
        0.000330
        0.000335
        0.000341
        0.000346
        0.000352
        0.000357
        0.000363
        0.000369
        0.000375
        0.000381
        0.000387
        0.000393
        0.000399
        0.000405
        0.000411
        0.000417
        0.000424
        0.000430
        0.000436
        0.000443
        0.000449
        0.000456
        0.000462
        0.000469
        0.000476
        0.000483
        0.000490
        0.000496
        0.000503
        0.000510
        0.000517
        0.000525
        0.000532
        0.000539
        0.000546
        0.000554
        0.000561
        0.000569
        0.000576
        0.000584
        0.000591
        0.000599
        0.000607
        0.000615
        0.000622
        0.000630
        0.000638
        0.000646
        0.000655
        0.000663
        0.000671
        0.000679
        0.000688
        0.000696
        0.000704
        0.000713
        0.000722
        0.000730
        0.000739
        0.000748
        0.000756
        0.000765
        0.000774
        0.000783
        0.000792
        0.000802
        0.000811
        0.000820
        0.000829
        0.000839
        0.000848
        0.000858
        0.000867
        0.000877
        0.000886
        0.000896
        0.000906
        0.000916
        0.000926
        0.000936
        0.000946
        0.000956
        0.000966
        0.000976
        0.000987
        0.000997
        0.001008
        0.001018
        0.001029
        0.001039
        0.001050
        0.001061
        0.001071
        0.001082
        0.001093
        0.001104
        0.001115
        0.001127
        0.001138
        0.001149
        0.001160
        0.001172
        0.001183
        0.001195
        0.001206
        0.001218
        0.001230
        0.001242
        0.001253
        0.001265
        0.001277
        0.001289
        0.001301
        0.001314
        0.001326
        0.001338
        0.001351
        0.001363
        0.001376
        0.001388
        0.001401
        0.001414
        0.001426
        0.001439
        0.001452
        0.001465
        0.001478
        0.001491
        0.001504
        0.001518
        0.001531
        0.001544
        0.001558
        0.001571
        0.001585
        0.001599
        0.001612
        0.001626
        0.001640
        0.001654
        0.001668
        0.001682
        0.001696
        0.001711
        0.001725
        0.001739
        0.001754
        0.001768
        0.001783
        0.001797
        0.001812
        0.001827
        0.001842
        0.001857
        0.001872
        0.001887
        0.001902
        0.001917
        0.001932
        0.001948
        0.001963
        0.001978
        0.001994
        0.002010
        0.002025
        0.002041
        0.002057
        0.002073
        0.002089
        0.002105
        0.002121
        0.002137
        0.002153
        0.002170
        0.002186
        0.002203
        0.002219
        0.002236
        0.002253
        0.002269
        0.002286
        0.002303
        0.002320
        0.002337
        0.002354
        0.002372
        0.002389
        0.002406
        0.002424
        0.002441
        0.002459
        0.002476
        0.002494
        0.002512
        0.002530
        0.002548
        0.002566
        0.002584
        0.002602
        0.002620
        0.002638
        0.002657
        0.002675
        0.002694
        0.002713
        0.002731
        0.002750
        0.002769
        0.002788
        0.002807
        0.002826
        0.002845
        0.002864
        0.002883
        0.002903
        0.002922
        0.002942
        0.002961
        0.002981
        0.003001
        0.003021
        0.003041
        0.003060
        0.003081
        0.003101
        0.003121
        0.003141
        0.003162
        0.003182
        0.003202
        0.003223
        0.003244
        0.003264
        0.003285
        0.003306
        0.003327
        0.003348
        0.003369
        0.003391
        0.003412
        0.003433
        0.003455
        0.003476
        0.003498
        0.003519
        0.003541
        0.003563
        0.003585
        0.003607
        0.003629
        0.003651
        0.003673
        0.003696
        0.003718
        0.003740
        0.003763
        0.003786
        0.003808
        0.003831
        0.003854
        0.003877
        0.003900
        0.003923
        0.003946
        0.003969
        0.003993
        0.004016
        0.004040
        0.004063
        0.004087
        0.004111
        0.004134
        0.004158
        0.004182
        0.004206
        0.004230
        0.004255
        0.004279
        0.004303
        0.004328
        0.004352
        0.004377
        0.004402
        0.004426
        0.004451
        0.004476
        0.004501
        0.004526
        0.004552
        0.004577
        0.004602
        0.004628
        0.004653
        0.004679
        0.004704
        0.004730
        0.004756
        0.004782
        0.004808
        0.004834
        0.004860
        0.004886
        0.004913
        0.004939
        0.004966
        0.004992
        0.005019
        0.005046
        0.005073
        0.005099
        0.005126
        0.005154
        0.005181
        0.005208
        0.005235
        0.005263
        0.005290
        0.005318
        0.005345
        0.005373
        0.005401
        0.005429
        0.005457
        0.005485
        0.005513
        0.005541
        0.005570
        0.005598
        0.005627
        0.005655
        0.005684
        0.005713
        0.005742
        0.005771
        0.005800
        0.005829
        0.005858
        0.005887
        0.005916
        0.005946
        0.005975
        0.006005
        0.006035
        0.006065
        0.006094
        0.006124
        0.006154
        0.006185
        0.006215
        0.006245
        0.006275
        0.006306
        0.006336
        0.006367
        0.006398
        0.006429
        0.006460
        0.006491
        0.006522
        0.006553
        0.006584
        0.006615
        0.006647
        0.006678
        0.006710
        0.006742
        0.006773
        0.006805
        0.006837
        0.006869
        0.006901
        0.006933
        0.006966
        0.006998
        0.007031
        0.007063
        0.007096
        0.007129
        0.007161
        0.007194
        0.007227
        0.007260
        0.007294
        0.007327
        0.007360
        0.007394
        0.007427
        0.007461
        0.007494
        0.007528
        0.007562
        0.007596
        0.007630
        0.007664
        0.007698
        0.007733
        0.007767
        0.007802
        0.007836
        0.007871
        0.007906
        0.007941
        0.007976
        0.008011
        0.008046
        0.008081
        0.008116
        0.008152
        0.008187
        0.008223
        0.008258
        0.008294
        0.008330
        0.008366
        0.008402
        0.008438
        0.008474
        0.008511
        0.008547
        0.008583
        0.008620
        0.008657
        0.008693
        0.008730
        0.008767
        0.008804
        0.008841
        0.008879
        0.008916
        0.008953
        0.008991
        0.009028
        0.009066
        0.009104
        0.009142
        0.009179
        0.009218
        0.009256
        0.009294
        0.009332
        0.009371
        0.009409
        0.009448
        0.009486
        0.009525
        0.009564
        0.009603
        0.009642
        0.009681
        0.009720
        0.009760
        0.009799
        0.009839
        0.009878
        0.009918
        0.009958
        0.009997
        0.010037
        0.010077
        0.010118
        0.010158
        0.010198
        0.010239
        0.010279
        0.010320
        0.010361
        0.010401
        0.010442
        0.010483
        0.010524
        0.010566
        0.010607
        0.010648
        0.010690
        0.010731
        0.010773
        0.010815
        0.010856
        0.010898
        0.010940
        0.010983
        0.011025
        0.011067
        0.011109
        0.011152
        0.011195
        0.011237
        0.011280
        0.011323
        0.011366
        0.011409
        0.011452
        0.011495
        0.011539
        0.011582
        0.011626
        0.011669
        0.011713
        0.011757
        0.011801
        0.011845
        0.011889
        0.011933
        0.011978
        0.012022
        0.012067
        0.012111
        0.012156
        0.012201
        0.012246
        0.012291
        0.012336
        0.012381
        0.012426
        0.012471
        0.012517
        0.012562
        0.012608
        0.012654
        0.012700
        0.012746
        0.012792
        0.012838
        0.012884
        0.012930
        0.012977
        0.013023
        0.013070
        0.013117
        0.013164
        0.013211
        0.013258
        0.013305
        0.013352
        0.013399
        0.013447
        0.013494
        0.013542
        0.013589
        0.013637
        0.013685
        0.013733
        0.013781
        0.013829
        0.013878
        0.013926
        0.013975
        0.014023
        0.014072
        0.014121
        0.014169
        0.014218
        0.014268
        0.014317
        0.014366
        0.014415
        0.014465
        0.014514
        0.014564
        0.014614
        0.014664
        0.014714
        0.014764
        0.014814
        0.014864
        0.014915
        0.014965
        0.015016
        0.015066
        0.015117
        0.015168
        0.015219
        0.015270
        0.015321
        0.015372
        0.015424
        0.015475
        0.015527
        0.015578
        0.015630
        0.015682
        0.015734
        0.015786
        0.015838
        0.015890
        0.015943
        0.015995
        0.016048
        0.016101
        0.016153
        0.016206
        0.016259
        0.016312
        0.016365
        0.016419
        0.016472
        0.016525
        0.016579
        0.016633
        0.016687
        0.016740
        0.016794
        0.016848
        0.016903
        0.016957
        0.017011
        0.017066
        0.017120
        0.017175
        0.017230
        0.017285
        0.017340
        0.017395
        0.017450
        0.017505
        0.017561
        0.017616
        0.017672
        0.017728
        0.017783
        0.017839
        0.017895
        0.017951
        0.018008
        0.018064
        0.018120
        0.018177
        0.018234
        0.018290
        0.018347
        0.018404
        0.018461
        0.018518
        0.018576
        0.018633
        0.018690
        0.018748
        0.018806
        0.018863
        0.018921
        0.018979
        0.019037
        0.019095
        0.019154
        0.019212
        0.019271
        0.019329
        0.019388
        0.019447
        0.019506
        0.019565
        0.019624
        0.019683
        0.019742
        0.019802
        0.019861
        0.019921
        0.019981
        0.020040
        0.020100
        0.020160
        0.020221
        0.020281
        0.020341
        0.020402
        0.020462
        0.020523
        0.020584
        0.020645
        0.020706
        0.020767
        0.020828
        0.020889
        0.020951
        0.021012
        0.021074
        0.021136
        0.021197
        0.021259
        0.021321
        0.021384
        0.021446
        0.021508
        0.021571
        0.021633
        0.021696
        0.021759
        0.021822
        0.021885
        0.021948
        0.022011
        0.022074
        0.022138
        0.022201
        0.022265
        0.022329
        0.022392
        0.022456
        0.022520
        0.022585
        0.022649
        0.022713
        0.022778
        0.022842
        0.022907
        0.022972
        0.023037
        0.023102
        0.023167
        0.023232
        0.023297
        0.023363
        0.023429
        0.023494
        0.023560
        0.023626
        0.023692
        0.023758
        0.023824
        0.023890
        0.023957
        0.024023
        0.024090
        0.024157
        0.024224
        0.024291
        0.024358
        0.024425
        0.024492
        0.024559
        0.024627
        0.024695
        0.024762
        0.024830
        0.024898
        0.024966
        0.025034
        0.025102
        0.025171
        0.025239
        0.025308
        0.025376
        0.025445
        0.025514
        0.025583
        0.025652
        0.025722
        0.025791
        0.025860
        0.025930
        0.026000
        0.026069
        0.026139
        0.026209
        0.026279
        0.026350
        0.026420
        0.026490
        0.026561
        0.026631
        0.026702
        0.026773
        0.026844
        0.026915
        0.026986
        0.027058
        0.027129
        0.027201
        0.027272
        0.027344
        0.027416
        0.027488
        0.027560
        0.027632
        0.027704
        0.027777
        0.027849
        0.027922
        0.027995
        0.028067
        0.028140
        0.028214
        0.028287
        0.028360
        0.028433
        0.028507
        0.028581
        0.028654
        0.028728
        0.028802
        0.028876
        0.028950
        0.029025
        0.029099
        0.029173
        0.029248
        0.029323
        0.029398
        0.029473
        0.029548
        0.029623
        0.029698
        0.029774
        0.029849
        0.029925
        0.030000
        0.030076
        0.030152
        0.030228
        0.030304
        0.030381
        0.030457
        0.030534
        0.030610
        0.030687
        0.030764
        0.030841
        0.030918
        0.030995
        0.031072
        0.031150
        0.031227
        0.031305
        0.031383
        0.031461
        0.031539
        0.031617
        0.031695
        0.031773
        0.031852
        0.031930
        0.032009
        0.032088
        0.032167
        0.032245
        0.032325
        0.032404
        0.032483
        0.032563
        0.032642
        0.032722
        0.032802
        0.032882
        0.032962
        0.033042
        0.033122
        0.033202
        0.033283
        0.033363
        0.033444
        0.033525
        0.033606
        0.033687
        0.033768
        0.033849
        0.033931
        0.034012
        0.034094
        0.034175
        0.034257
        0.034339
        0.034421
        0.034503
        0.034586
        0.034668
        0.034751
        0.034833
        0.034916
        0.034999
        0.035082
        0.035165
        0.035248
        0.035331
        0.035415
        0.035498
        0.035582
        0.035666
        0.035750
        0.035834
        0.035918
        0.036002
        0.036086
        0.036171
        0.036256
        0.036340
        0.036425
        0.036510
        0.036595
        0.036680
        0.036765
        0.036851
        0.036936
        0.037022
        0.037108
        0.037194
        0.037280
        0.037366
        0.037452
        0.037538
        0.037625
        0.037711
        0.037798
        0.037885
        0.037971
        0.038059
        0.038146
        0.038233
        0.038320
        0.038408
        0.038495
        0.038583
        0.038671
        0.038759
        0.038847
        0.038935
        0.039023
        0.039112
        0.039200
        0.039289
        0.039378
        0.039467
        0.039556
        0.039645
        0.039734
        0.039823
        0.039913
        0.040002
        0.040092
        0.040182
        0.040272
        0.040362
        0.040452
        0.040542
        0.040633
        0.040723
        0.040814
        0.040905
        0.040995
        0.041086
        0.041178
        0.041269
        0.041360
        0.041452
        0.041543
        0.041635
        0.041727
        0.041819
        0.041911
        0.042003
        0.042095
        0.042188
        0.042280
        0.042373
        0.042465
        0.042558
        0.042651
        0.042744
        0.042838
        0.042931
        0.043025
        0.043118
        0.043212
        0.043306
        0.043400
        0.043494
        0.043588
        0.043682
        0.043777
        0.043871
        0.043966
        0.044061
        0.044155
        0.044251
        0.044346
        0.044441
        0.044536
        0.044632
        0.044727
        0.044823
        0.044919
        0.045015
        0.045111
        0.045207
        0.045304
        0.045400
        0.045497
        0.045593
        0.045690
        0.045787
        0.045884
        0.045981
        0.046079
        0.046176
        0.046273
        0.046371
        0.046469
        0.046567
        0.046665
        0.046763
        0.046861
        0.046960
        0.047058
        0.047157
        0.047255
        0.047354
        0.047453
        0.047552
        0.047651
        0.047751
        0.047850
        0.047950
        0.048050
        0.048149
        0.048249
        0.048349
        0.048450
        0.048550
        0.048650
        0.048751
        0.048851
        0.048952
        0.049053
        0.049154
        0.049255
        0.049357
        0.049458
        0.049560
        0.049661
        0.049763
        0.049865
        0.049967
        0.050069
        0.050171
        0.050274
        0.050376
        0.050479
        0.050581
        0.050684
        0.050787
        0.050890
        0.050993
        0.051097
        0.051200
        0.051304
        0.051408
        0.051511
        0.051615
        0.051719
        0.051824
        0.051928
        0.052032
        0.052137
        0.052242
        0.052346
        0.052451
        0.052556
        0.052662
        0.052767
        0.052872
        0.052978
        0.053083
        0.053189
        0.053295
        0.053401
        0.053507
        0.053614
        0.053720
        0.053827
        0.053933
        0.054040
        0.054147
        0.054254
        0.054361
        0.054468
        0.054576
        0.054683
        0.054791
        0.054899
        0.055007
        0.055115
        0.055223
        0.055331
        0.055439
        0.055548
        0.055656
        0.055765
        0.055874
        0.055983
        0.056092
        0.056201
        0.056311
        0.056420
        0.056530
        0.056640
        0.056749
        0.056859
        0.056970
        0.057080
        0.057190
        0.057301
        0.057411
        0.057522
        0.057633
        0.057744
        0.057855
        0.057966
        0.058078
        0.058189
        0.058301
        0.058412
        0.058524
        0.058636
        0.058748
        0.058861
        0.058973
        0.059085
        0.059198
        0.059311
        0.059424
        0.059537
        0.059650
        0.059763
        0.059876
        0.059990
        0.060103
        0.060217
        0.060331
        0.060445
        0.060559
        0.060673
        0.060788
        0.060902
        0.061017
        0.061131
        0.061246
        0.061361
        0.061476
        0.061592
        0.061707
        0.061823
        0.061938
        0.062054
        0.062170
        0.062286
        0.062402
        0.062518
        0.062634
        0.062751
        0.062868
        0.062984
        0.063101
        0.063218
        0.063335
        0.063453
        0.063570
        0.063688
        0.063805
        0.063923
        0.064041
        0.064159
        0.064277
        0.064395
        0.064514
        0.064632
        0.064751
        0.064870
        0.064989
        0.065108
        0.065227
        0.065346
        0.065465
        0.065585
        0.065705
        0.065825
        0.065944
        0.066064
        0.066185
        0.066305
        0.066425
        0.066546
        0.066667
        0.066787
        0.066908
        0.067030
        0.067151
        0.067272
        0.067393
        0.067515
        0.067637
        0.067759
        0.067881
        0.068003
        0.068125
        0.068247
        0.068370
        0.068492
        0.068615
        0.068738
        0.068861
        0.068984
        0.069107
        0.069231
        0.069354
        0.069478
        0.069602
        0.069726
        0.069850
        0.069974
        0.070098
        0.070222
        0.070347
        0.070472
        0.070596
        0.070721
        0.070846
        0.070972
        0.071097
        0.071222
        0.071348
        0.071474
        0.071599
        0.071725
        0.071851
        0.071978
        0.072104
        0.072230
        0.072357
        0.072484
        0.072611
        0.072738
        0.072865
        0.072992
        0.073119
        0.073247
        0.073374
        0.073502
        0.073630
        0.073758
        0.073886
        0.074015
        0.074143
        0.074272
        0.074400
        0.074529
        0.074658
        0.074787
        0.074916
        0.075046
        0.075175
        0.075305
        0.075434
        0.075564
        0.075694
        0.075824
        0.075954
        0.076085
        0.076215
        0.076346
        0.076477
        0.076608
        0.076739
        0.076870
        0.077001
